X:179
T:reel du Combat
C:Marc Maziade
Z:robin.beech@mcgill.ca
S:Qu\'ebec Folklore vol XXXI, no 1, Janvier-F\'evrier 2012
L:1/16
M:2/4
K:Ddor
D2DF EFAG | FEDF EGEC | D2DF EFGA | BcBG AFEF |
D2DF EFAG | FEDF EGEC | D2F EFGA |1 BcBG [A2e2][A2e2] :|2 BcBG A2Ac |:
d2dg fedf | edce dABc | A2dg fedf | ecAc efec | d2dg fedf |1 edce dABc | A2dg fedf | ecAc d2d2 :|2 edce dABd | cBAc BAGB | AGFA GFEF |]

